raw-svg/folder.svg

<svg viewBox="0 0 24 24" xmlns="http://www.w3.org/2000/svg"><path d="m17.5 19.25h-11a2.75 2.75 0 0 1 -2.75-2.75v-9a2.75 2.75 0 0 1 2.75-2.75h2.5a.77.77 0 0 1 .57.25l2.77 3.24h5.16a2.75 2.75 0 0 1 2.75 2.76v5.5a2.75 2.75 0 0 1 -2.75 2.75zm-11-13a1.25 1.25 0 0 0 -1.25 1.25v9a1.25 1.25 0 0 0 1.25 1.25h11a1.25 1.25 0 0 0 1.25-1.25v-5.5a1.25 1.25 0 0 0 -1.25-1.25h-5.5a.77.77 0 0 1 -.57-.26l-2.77-3.24z"/></svg>

<svg xmlns="http://www.w3.org/2000/svg" viewBox="0 0 24 24"><g id="folder"><path d="M17.5,19.25H6.5A2.75,2.75,0,0,1,3.75,16.5v-9A2.75,2.75,0,0,1,6.5,4.75H9A.77.77,0,0,1,9.57,5l2.77,3.24H17.5A2.75,2.75,0,0,1,20.25,11v5.5A2.75,2.75,0,0,1,17.5,19.25Zm-11-13A1.25,1.25,0,0,0,5.25,7.5v9A1.25,1.25,0,0,0,6.5,17.75h11a1.25,1.25,0,0,0,1.25-1.25V11A1.25,1.25,0,0,0,17.5,9.75H12a.77.77,0,0,1-.57-.26L8.66,6.25Z"/></g></svg>
